art/logos/namco.svg

<svg height="110" width="800" xmlns="http://www.w3.org/2000/svg"><g fill="#a51e23"><path d="m649.08982 6.2827844c-14.6543 0-26.88228 12.2279806-26.88228 26.8822816v46.960336c0 14.654303 12.22798 26.882318 26.88228 26.882288h85.10864c14.6543 0 26.88221-12.228021 26.88228-26.882288v-46.960336c0-14.654301-12.22798-26.8822816-26.88228-26.8822816zm6.09013 28.5554526h72.29741v43.613994h-72.29741z"/><path d="m8.1985733 8.2905898v98.8286402h32.9724107v-70.273188h62.248536v70.273188h32.34141v-71.946359c0-14.654302-12.22799-26.8822812-26.88229-26.8822812z"/><path d="m158.06987 8.2905898v25.9899232h89.57043v7.027319h-69.93855c-14.6543 0-26.88228 12.339526-26.88228 26.993828v11.935287c0 14.654302 12.22798 26.882283 26.88228 26.882283h69.93855 14.61236 17.73562v-71.946359c-.00004-14.654302-12.22798-26.8822812-26.88229-26.8822812zm26.43611 59.3418012h63.13432v14.054638h-63.13432z"/><path d="m300.28942 8.2905898v98.8286402h33.01724v-70.273188h33.9096v70.273188h33.01724v-70.273188h34.57887v70.273188h32.34797v-71.946359c.00004-14.654302-12.22798-26.8822812-26.88228-26.8822812z"/><path d="m513.22832 6.2827844c-14.6543 0-26.88228 12.2279806-26.88228 26.8822816v46.960336c0 14.654303 12.22798 26.882318 26.88228 26.882288h90.35124v-28.555459h-83.63014v-43.613994h83.63014v-28.5554526z"/><path d="m782.22423 7.1951312c4.30842.0000357 8.01031 1.5442432 11.10568 4.6325868 3.09534 3.088415 4.64301 6.800767 4.64305 11.137054-.00004 4.336324-1.54075 8.052138-4.62213 11.147514-3.08145 3.09534-6.79031 4.643045-11.1266 4.643045-4.35024 0-8.07305-1.544207-11.16839-4.632587-3.09538-3.088415-4.64308-6.807727-4.64308-11.157972 0-4.350243 1.55117-8.066058 4.65354-11.147512 3.1023-3.0813836 6.82165-4.6220931 11.15793-4.6221288zm-.04183 28.9667578c3.61127 0 6.7101-1.293205 9.29659-3.879651 2.58641-2.586446 3.87961-5.692244 3.87965-9.317466-.00004-3.625185-1.28978-6.724023-3.8692-9.296548-2.57952-2.572489-5.68185-3.8587339-9.30704-3.8587696-3.62519.0000357-6.72406 1.2862806-9.29655 3.8587696-2.57249 2.572525-3.85873 5.671363-3.85873 9.296548 0 3.625222 1.28624 6.73102 3.85873 9.317466s5.67136 3.879651 9.29655 3.879651zm7.11099-4.454793h-3.13721l-1.31762-3.701894c-.79477-2.216938-2.29365-3.325425-4.49663-3.325425h-2.15422v7.027319h-2.73983v-16.961796h6.37897c4.48967.000036 6.73452 1.554702 6.73452 4.663963 0 2.997785-1.471 4.608206-4.413 4.831295 1.50584.460136 2.62129 1.53375 3.34634 3.220841zm-11.10568-9.390675h3.43001c2.69099 0 4.03649-.885362 4.03652-2.656157-.00003-1.742881-1.38736-2.614322-4.16203-2.614322h-3.3045z"/></g></svg>

<?xml version="1.0" encoding="UTF-8" standalone="no"?>
<!DOCTYPE svg PUBLIC "-//W3C//DTD SVG 1.0//EN" "http://www.w3.org/TR/2001/REC-SVG-20010904/DTD/svg10.dtd">
<!-- Created with Inkscape (http://www.inkscape.org/) -->
<svg
   xmlns:svg="http://www.w3.org/2000/svg"
   xmlns="http://www.w3.org/2000/svg"
   version="1.0"
   width="800"
   height="110"
   id="svg2">
  <defs
     id="defs4" />
  <g
     id="layer1">
    <path
       d="M 649.08982,6.2827844 C 634.43552,6.2827844 622.20754,18.510765 622.20754,33.165066 L 622.20754,80.125402 C 622.20754,94.779705 634.43552,107.00772 649.08982,107.00769 L 734.19846,107.00769 C 748.85276,107.00769 761.08067,94.779669 761.08074,80.125402 L 761.08074,33.165066 C 761.08074,18.510765 748.85276,6.2827844 734.19846,6.2827844 L 649.08982,6.2827844 z M 655.17995,34.838237 L 727.47736,34.838237 L 727.47736,78.452231 L 655.17995,78.452231 L 655.17995,34.838237 z"
       id="rect4393"
       style="opacity:1;fill:#a51e23;fill-opacity:1;fill-rule:nonzero;stroke:none;stroke-width:8;stroke-linecap:round;stroke-linejoin:round;stroke-miterlimit:4;stroke-dasharray:none;stroke-opacity:1" />
    <path
       d="M 8.1985733,8.2905898 L 8.1985733,107.11923 L 41.170984,107.11923 L 41.170984,36.846042 L 103.41952,36.846042 L 103.41952,107.11923 L 135.76093,107.11923 L 135.76093,35.172871 C 135.76093,20.518569 123.53294,8.2905898 108.87864,8.2905898 L 8.1985733,8.2905898 z"
       id="rect4348"
       style="opacity:1;fill:#a51e23;fill-opacity:1;fill-rule:nonzero;stroke:none;stroke-width:8;stroke-linecap:round;stroke-linejoin:round;stroke-miterlimit:4;stroke-dasharray:none;stroke-opacity:1" />
    <path
       d="M 158.06987,8.2905898 L 158.06987,34.280513 L 247.6403,34.280513 L 247.6403,41.307832 L 177.70175,41.307832 C 163.04745,41.307832 150.81947,53.647358 150.81947,68.30166 L 150.81947,80.236947 C 150.81947,94.891249 163.04745,107.11923 177.70175,107.11923 L 247.6403,107.11923 L 262.25266,107.11923 L 279.98828,107.11923 L 279.98828,35.172871 C 279.98824,20.518569 267.7603,8.2905898 253.10599,8.2905898 L 158.06987,8.2905898 z M 184.50598,67.632391 L 247.6403,67.632391 L 247.6403,81.687029 L 184.50598,81.687029 L 184.50598,67.632391 z"
       id="path4359"
       style="opacity:1;fill:#a51e23;fill-opacity:1;fill-rule:nonzero;stroke:none;stroke-width:8;stroke-linecap:round;stroke-linejoin:round;stroke-miterlimit:4;stroke-dasharray:none;stroke-opacity:1" />
    <path
       d="M 300.28942,8.2905898 L 300.28942,107.11923 L 333.30666,107.11923 L 333.30666,36.846042 L 367.21626,36.846042 L 367.21626,107.11923 L 400.2335,107.11923 L 400.2335,36.846042 L 434.81237,36.846042 L 434.81237,107.11923 L 467.16034,107.11923 L 467.16034,35.172871 C 467.16038,20.518569 454.93236,8.2905898 440.27806,8.2905898 L 300.28942,8.2905898 z"
       id="path4384"
       style="opacity:1;fill:#a51e23;fill-opacity:1;fill-rule:nonzero;stroke:none;stroke-width:8;stroke-linecap:round;stroke-linejoin:round;stroke-miterlimit:4;stroke-dasharray:none;stroke-opacity:1" />
    <path
       d="M 513.22832,6.2827844 C 498.57402,6.2827844 486.34604,18.510765 486.34604,33.165066 L 486.34604,80.125402 C 486.34604,94.779705 498.57402,107.00772 513.22832,107.00769 L 603.57956,107.00769 L 603.57956,78.452231 L 519.94942,78.452231 L 519.94942,34.838237 L 603.57956,34.838237 L 603.57956,6.2827844 L 513.22832,6.2827844 z"
       id="rect4389"
       style="opacity:1;fill:#a51e23;fill-opacity:1;fill-rule:nonzero;stroke:none;stroke-width:8;stroke-linecap:round;stroke-linejoin:round;stroke-miterlimit:4;stroke-dasharray:none;stroke-opacity:1" />
    <path
       d="M 782.22423,7.1951312 C 786.53265,7.1951669 790.23454,8.7393744 793.32991,11.827718 C 796.42525,14.916133 797.97292,18.628485 797.97296,22.964772 C 797.97292,27.301096 796.43221,31.01691 793.35083,34.112286 C 790.26938,37.207626 786.56052,38.755331 782.22423,38.755331 C 777.87399,38.755331 774.15118,37.211124 771.05584,34.122744 C 767.96046,31.034329 766.41276,27.315017 766.41276,22.964772 C 766.41276,18.614529 767.96393,14.898714 771.0663,11.81726 C 774.1686,8.7358764 777.88795,7.1951669 782.22423,7.1951312 L 782.22423,7.1951312 z M 782.1824,36.161889 C 785.79367,36.161889 788.8925,34.868684 791.47899,32.282238 C 794.0654,29.695792 795.3586,26.589994 795.35864,22.964772 C 795.3586,19.339587 794.06886,16.240749 791.48944,13.668224 C 788.90992,11.095735 785.80759,9.8094901 782.1824,9.8094544 C 778.55721,9.8094901 775.45834,11.095735 772.88585,13.668224 C 770.31336,16.240749 769.02712,19.339587 769.02712,22.964772 C 769.02712,26.589994 770.31336,29.695792 772.88585,32.282238 C 775.45834,34.868684 778.55721,36.161889 782.1824,36.161889 L 782.1824,36.161889 z M 789.29339,31.707096 L 786.15618,31.707096 L 784.83856,28.005202 C 784.04379,25.788264 782.54491,24.679777 780.34193,24.679777 L 778.18771,24.679777 L 778.18771,31.707096 L 775.44788,31.707096 L 775.44788,14.7453 L 781.82685,14.7453 C 786.31652,14.745336 788.56137,16.300002 788.56137,19.409263 C 788.56137,22.407048 787.09037,24.017469 784.14837,24.240558 C 785.65421,24.700694 786.76966,25.774308 787.49471,27.461399 L 789.29339,31.707096 z M 778.18771,22.316421 L 781.61772,22.316421 C 784.30871,22.316421 785.65421,21.431059 785.65424,19.660264 C 785.65421,17.917383 784.26688,17.045942 781.49221,17.045942 L 778.18771,17.045942 L 778.18771,22.316421 z"
       id="text4406"
       style="font-size:12px;font-style:normal;font-variant:normal;font-weight:normal;font-stretch:normal;text-align:start;line-height:100%;writing-mode:lr-tb;text-anchor:start;fill:#a51e23;fill-opacity:1;stroke:none;stroke-width:1px;stroke-linecap:butt;stroke-linejoin:miter;stroke-opacity:1;font-family:Microsoft Sans Serif;-inkscape-font-specification:Microsoft Sans Serif" />
  </g>
</svg>
